;FLAVOR:Marlin
M117 Time Left 0h24m25s
;Filament used: 1.49649m
;Layer height: 0.3
;MINX:66.94
;MINY:96.44
;MINZ:0.2
;MAXX:163.06
;MAXY:127.56
;MAXZ:5.9
;POSTPROCESSED
;Generated with Cura_SteamEngine 4.5.0
M140 S60
M105
M190 S60
M104 S200
M105
M109 S200
M82 ;absolute extrusion mode
; Ender 3 Custom Start G-code
G92 E0 ; Reset Extruder
G28 ; Home all axes
G29 ; APL
G1 Z2.0 F3000 ; Move Z Axis up little to prevent scratching of Heat Bed
G1 X0.1 Y20 Z0.3 F5000.0 ; Move to start position
G1 X0.1 Y200.0 Z0.3 F1500.0 E15 ; Draw the first line
G1 X0.4 Y200.0 Z0.3 F5000.0 ; Move to side a little
G1 X0.4 Y20 Z0.3 F1500.0 E30 ; Draw the second line
G92 E0 ; Reset Extruder
G1 Z2.0 F3000 ; Move Z Axis up little to prevent scratching of Heat Bed
G1 X5 Y20 Z0.3 F5000.0 ; Move over to prevent blob squish
G92 E0
G92 E0
G1 F2700 E-5
;LAYER_COUNT:20
;LAYER:0
M107
G0 F6000 X70.621 Y97.734 Z0.2
;TYPE:SKIRT
G1 F2700 E0
G1 F1200 X71.315 Y97.332 E0.03468
G1 X72.047 Y97.001 E0.06941
G1 X72.807 Y96.744 E0.1041
G1 X73.59 Y96.564 E0.13884
G1 X74.386 Y96.463 E0.17353
G1 X75 Y96.44 E0.2001
G1 X155 Y96.44 E3.65916
G1 X155.802 Y96.48 E3.69388
G1 X156.596 Y96.6 E3.7286
G1 X157.374 Y96.797 E3.7633
G1 X158.128 Y97.072 E3.798
G1 X158.851 Y97.42 E3.83269
G1 X159.537 Y97.838 E3.86743
G1 X160.177 Y98.322 E3.90212
G1 X160.766 Y98.868 E3.93685
G1 X161.297 Y99.469 E3.97152
G1 X161.766 Y100.121 E4.00625
G1 X162.168 Y100.815 E4.04093
G1 X162.499 Y101.547 E4.07567
G1 X162.756 Y102.307 E4.11035
G1 X162.936 Y103.09 E4.14509
G1 X163.037 Y103.886 E4.17979
G1 X163.06 Y104.5 E4.20635
G1 X163.06 Y119.5 E4.85493
G1 X163.02 Y120.302 E4.88965
G1 X162.9 Y121.096 E4.92437
G1 X162.703 Y121.874 E4.95907
G1 X162.428 Y122.628 E4.99377
G1 X162.08 Y123.351 E5.02846
G1 X161.662 Y124.037 E5.0632
G1 X161.178 Y124.677 E5.09789
G1 X160.632 Y125.266 E5.13262
G1 X160.031 Y125.797 E5.1673
G1 X159.379 Y126.266 E5.20202
G1 X158.685 Y126.668 E5.2367
G1 X157.953 Y126.999 E5.27144
G1 X157.193 Y127.256 E5.30613
G1 X156.41 Y127.436 E5.34086
G1 X155.614 Y127.537 E5.37556
G1 X155 Y127.56 E5.40212
G1 X75 Y127.56 E8.86118
G1 X74.198 Y127.52 E8.8959
G1 X73.404 Y127.4 E8.93062
G1 X72.626 Y127.203 E8.96532
G1 X71.872 Y126.928 E9.00002
G1 X71.149 Y126.58 E9.03472
G1 X70.463 Y126.162 E9.06945
G1 X69.823 Y125.678 E9.10415
G1 X69.234 Y125.132 E9.13887
G1 X68.703 Y124.531 E9.17355
G1 X68.234 Y123.879 E9.20827
G1 X67.832 Y123.185 E9.24295
G1 X67.501 Y122.453 E9.27769
G1 X67.244 Y121.693 E9.31238
G1 X67.064 Y120.91 E9.34712
G1 X66.963 Y120.114 E9.38181
G1 X66.94 Y119.5 E9.40838
G1 X66.94 Y104.5 E10.05695
G1 X66.98 Y103.698 E10.09167
G1 X67.1 Y102.904 E10.12639
G1 X67.297 Y102.126 E10.16109
G1 X67.572 Y101.372 E10.19579
G1 X67.92 Y100.649 E10.23049
G1 X68.338 Y99.963 E10.26522
G1 X68.822 Y99.323 E10.29992
G1 X69.368 Y98.734 E10.33464
G1 X69.969 Y98.203 E10.36932
G1 X70.621 Y97.734 E10.40405
G0 F6000 X71.119 Y98.035
G1 F1200 X71.805 Y97.671 E10.43762
G1 X72.524 Y97.378 E10.47119
G1 X73.269 Y97.161 E10.50475
G1 X74.033 Y97.022 E10.53832
G1 X75 Y96.96 E10.58022
G1 X155 Y96.96 E14.03927
G1 X155.775 Y97 E14.07283
G1 X156.543 Y97.119 E14.10643
G1 X157.293 Y97.317 E14.13997
G1 X158.02 Y97.591 E14.17356
G1 X158.714 Y97.938 E14.20711
G1 X159.369 Y98.355 E14.24069
G1 X159.978 Y98.837 E14.27427
G1 X160.534 Y99.379 E14.30784
G1 X161.031 Y99.975 E14.34139
G1 X161.465 Y100.619 E14.37497
G1 X161.829 Y101.305 E14.40855
G1 X162.122 Y102.024 E14.44212
G1 X162.339 Y102.769 E14.47567
G1 X162.478 Y103.533 E14.50925
G1 X162.54 Y104.5 E14.55115
G1 X162.54 Y119.5 E15.19972
G1 X162.5 Y120.275 E15.23327
G1 X162.381 Y121.043 E15.26688
G1 X162.183 Y121.793 E15.30042
G1 X161.909 Y122.52 E15.33401
G1 X161.562 Y123.214 E15.36756
G1 X161.145 Y123.869 E15.40113
G1 X160.663 Y124.478 E15.43471
G1 X160.121 Y125.034 E15.46828
G1 X159.525 Y125.531 E15.50184
G1 X158.881 Y125.965 E15.53542
G1 X158.195 Y126.329 E15.569
G1 X157.476 Y126.622 E15.60257
G1 X156.731 Y126.839 E15.63612
G1 X155.967 Y126.978 E15.66969
G1 X155 Y127.04 E15.71159
G1 X75 Y127.04 E19.17064
G1 X74.225 Y127 E19.2042
G1 X73.457 Y126.881 E19.2378
G1 X72.707 Y126.683 E19.27134
G1 X71.98 Y126.409 E19.30493
G1 X71.286 Y126.062 E19.33848
G1 X70.631 Y125.645 E19.37206
G1 X70.022 Y125.163 E19.40564
G1 X69.466 Y124.621 E19.43921
G1 X68.969 Y124.025 E19.47277
G1 X68.535 Y123.381 E19.50634
G1 X68.171 Y122.695 E19.53992
G1 X67.878 Y121.976 E19.57349
G1 X67.661 Y121.231 E19.60704
G1 X67.522 Y120.467 E19.64062
G1 X67.46 Y119.5 E19.68252
G1 X67.46 Y104.5 E20.33109
G1 X67.5 Y103.725 E20.36464
G1 X67.619 Y102.957 E20.39825
G1 X67.817 Y102.207 E20.43179
G1 X68.091 Y101.48 E20.46538
G1 X68.438 Y100.786 E20.49893
G1 X68.855 Y100.131 E20.5325
G1 X69.337 Y99.522 E20.56608
G1 X69.879 Y98.966 E20.59966
G1 X70.475 Y98.469 E20.63321
G1 X71.119 Y98.035 E20.66679
G0 F6000 X70.979 Y98.746
G1 F1200 X71.615 Y98.35 E20.69918
G1 X72.29 Y98.024 E20.73159
G1 X72.995 Y97.772 E20.76397
G1 X73.724 Y97.597 E20.79638
G1 X74.466 Y97.5 E20.82874
G1 X75 Y97.48 E20.85184
G1 X155 Y97.48 E24.3109
G1 X155.748 Y97.52 E24.34329
G1 X156.488 Y97.639 E24.37569
G1 X157.21 Y97.837 E24.40806
G1 X157.908 Y98.11 E24.44047
G1 X158.572 Y98.457 E24.47286
G1 X159.196 Y98.872 E24.50527
G1 X159.771 Y99.351 E24.53763
G1 X160.293 Y99.889 E24.57004
G1 X160.754 Y100.479 E24.60241
G1 X161.15 Y101.115 E24.63481
G1 X161.476 Y101.79 E24.66722
G1 X161.728 Y102.495 E24.69959
G1 X161.903 Y103.224 E24.73201
G1 X162 Y103.966 E24.76436
G1 X162.02 Y104.5 E24.78747
G1 X162.02 Y119.5 E25.43604
G1 X161.98 Y120.248 E25.46843
G1 X161.861 Y120.988 E25.50084
G1 X161.663 Y121.71 E25.53321
G1 X161.39 Y122.408 E25.56561
G1 X161.043 Y123.072 E25.59801
G1 X160.628 Y123.696 E25.63041
G1 X160.149 Y124.271 E25.66277
G1 X159.611 Y124.793 E25.69518
G1 X159.021 Y125.254 E25.72755
G1 X158.385 Y125.65 E25.75995
G1 X157.71 Y125.976 E25.79236
G1 X157.005 Y126.228 E25.82473
G1 X156.276 Y126.403 E25.85715
G1 X155.534 Y126.5 E25.8895
G1 X155 Y126.52 E25.91261
G1 X75 Y126.52 E29.37166
G1 X74.252 Y126.48 E29.40405
G1 X73.512 Y126.361 E29.43646
G1 X72.79 Y126.163 E29.46883
G1 X72.092 Y125.89 E29.50124
G1 X71.428 Y125.543 E29.53363
G1 X70.804 Y125.128 E29.56603
G1 X70.229 Y124.649 E29.59839
G1 X69.707 Y124.111 E29.6308
G1 X69.246 Y123.521 E29.66318
G1 X68.85 Y122.885 E29.69557
G1 X68.524 Y122.21 E29.72798
G1 X68.272 Y121.505 E29.76036
G1 X68.097 Y120.776 E29.79277
G1 X68 Y120.034 E29.82513
G1 X67.98 Y119.5 E29.84823
G1 X67.98 Y104.5 E30.4968
G1 X68.02 Y103.752 E30.52919
G1 X68.139 Y103.012 E30.5616
G1 X68.337 Y102.29 E30.59397
G1 X68.61 Y101.592 E30.62638
G1 X68.957 Y100.928 E30.65877
G1 X69.372 Y100.304 E30.69117
G1 X69.851 Y99.729 E30.72353
G1 X70.389 Y99.207 E30.75595
G1 X70.979 Y98.746 E30.78832
G0 F6000 X71.48 Y99.035
G1 F1200 X72.107 Y98.679 E30.8195
G1 X72.769 Y98.395 E30.85064
G1 X73.459 Y98.185 E30.88183
G1 X74.168 Y98.054 E30.913
G1 X75 Y98 E30.94905
G1 X155 Y98 E34.40811
G1 X155.72 Y98.04 E34.43929
G1 X156.431 Y98.159 E34.47046
G1 X157.124 Y98.357 E34.50162
G1 X157.791 Y98.63 E34.53278
G1 X158.424 Y98.975 E34.56395
G1 X159.015 Y99.388 E34.59513
G1 X159.556 Y99.864 E34.62628
G1 X160.041 Y100.397 E34.65744
G1 X160.465 Y100.98 E34.68861
G1 X160.821 Y101.607 E34.71979
G1 X161.105 Y102.269 E34.75093
G1 X161.315 Y102.959 E34.78212
G1 X161.446 Y103.668 E34.81329
G1 X161.5 Y104.5 E34.84934
G1 X161.5 Y119.5 E35.49792
G1 X161.46 Y120.22 E35.5291
G1 X161.341 Y120.931 E35.56027
G1 X161.143 Y121.624 E35.59143
G1 X160.87 Y122.291 E35.62259
G1 X160.525 Y122.924 E35.65376
G1 X160.112 Y123.515 E35.68494
G1 X159.636 Y124.056 E35.71609
G1 X159.103 Y124.541 E35.74725
G1 X158.52 Y124.965 E35.77842
G1 X157.893 Y125.321 E35.8096
G1 X157.231 Y125.605 E35.84074
G1 X156.541 Y125.815 E35.87193
G1 X155.832 Y125.946 E35.9031
G1 X155 Y126 E35.93915
G1 X75 Y126 E39.39821
G1 X74.28 Y125.96 E39.42939
G1 X73.569 Y125.841 E39.46056
G1 X72.876 Y125.643 E39.49172
G1 X72.209 Y125.37 E39.52288
G1 X71.576 Y125.025 E39.55405
G1 X70.985 Y124.612 E39.58523
G1 X70.444 Y124.136 E39.61639
G1 X69.959 Y123.603 E39.64755
G1 X69.535 Y123.02 E39.67871
G1 X69.179 Y122.393 E39.70989
G1 X68.895 Y121.731 E39.74104
G1 X68.685 Y121.041 E39.77222
G1 X68.554 Y120.332 E39.8034
G1 X68.5 Y119.5 E39.83945
G1 X68.5 Y104.5 E40.48802
G1 X68.54 Y103.78 E40.5192
G1 X68.659 Y103.069 E40.55037
G1 X68.857 Y102.376 E40.58153
G1 X69.13 Y101.709 E40.61269
G1 X69.475 Y101.076 E40.64386
G1 X69.888 Y100.485 E40.67504
G1 X70.364 Y99.944 E40.7062
G1 X70.897 Y99.459 E40.73736
G1 X71.48 Y99.035 E40.76853
G0 F6000 X71.979 Y99.339
G1 F1200 X72.594 Y99.025 E40.79838
G1 X73.242 Y98.784 E40.82828
G1 X73.914 Y98.619 E40.85819
G1 X74.6 Y98.533 E40.88809
G1 X75 Y98.52 E40.90539
G1 X155 Y98.52 E44.36445
G1 X155.69 Y98.56 E44.39433
G1 X156.371 Y98.679 E44.42422
G1 X157.034 Y98.877 E44.45414
G1 X157.669 Y99.149 E44.48401
G1 X158.269 Y99.493 E44.51391
G1 X158.825 Y99.903 E44.54378
G1 X159.33 Y100.376 E44.5737
G1 X159.777 Y100.903 E44.60358
G1 X160.161 Y101.479 E44.63351
G1 X160.475 Y102.094 E44.66337
G1 X160.716 Y102.742 E44.69326
G1 X160.881 Y103.414 E44.72318
G1 X160.967 Y104.1 E44.75308
G1 X160.98 Y104.5 E44.77038
G1 X160.98 Y119.5 E45.41895
G1 X160.94 Y120.19 E45.44884
G1 X160.821 Y120.871 E45.47873
G1 X160.623 Y121.534 E45.50865
G1 X160.351 Y122.169 E45.53852
G1 X160.007 Y122.769 E45.56842
G1 X159.597 Y123.325 E45.59829
G1 X159.124 Y123.83 E45.62821
G1 X158.597 Y124.277 E45.65809
G1 X158.021 Y124.661 E45.68802
G1 X157.406 Y124.975 E45.71788
G1 X156.758 Y125.216 E45.74777
G1 X156.086 Y125.381 E45.77769
G1 X155.4 Y125.467 E45.80758
G1 X155 Y125.48 E45.82489
G1 X75 Y125.48 E49.28394
G1 X74.31 Y125.44 E49.31382
G1 X73.629 Y125.321 E49.34372
G1 X72.966 Y125.123 E49.37363
G1 X72.331 Y124.851 E49.4035
G1 X71.731 Y124.507 E49.43341
G1 X71.175 Y124.097 E49.46328
G1 X70.67 Y123.624 E49.49319
G1 X70.223 Y123.097 E49.52307
G1 X69.839 Y122.521 E49.55301
G1 X69.525 Y121.906 E49.58286
G1 X69.284 Y121.258 E49.61276
G1 X69.119 Y120.586 E49.64268
G1 X69.033 Y119.9 E49.67257
G1 X69.02 Y119.5 E49.68987
G1 X69.02 Y104.5 E50.33845
G1 X69.06 Y103.81 E50.36833
G1 X69.179 Y103.129 E50.39822
G1 X69.377 Y102.466 E50.42814
G1 X69.649 Y101.831 E50.45801
G1 X69.993 Y101.231 E50.48791
G1 X70.403 Y100.675 E50.51778
G1 X70.876 Y100.17 E50.5477
G1 X71.403 Y99.723 E50.57758
G1 X71.979 Y99.339 E50.60751
G0 F6000 X71.907 Y100.001
G1 F1200 X72.473 Y99.66 E50.63608
G1 X73.076 Y99.39 E50.66465
G1 X73.707 Y99.195 E50.69321
G1 X74.357 Y99.078 E50.72176
G1 X75 Y99.04 E50.74961
G1 X155 Y99.04 E54.20867
G1 X155.659 Y99.08 E54.23721
G1 X156.309 Y99.199 E54.26579
G1 X156.94 Y99.396 E54.29437
G1 X157.542 Y99.668 E54.32293
G1 X158.107 Y100.01 E54.35149
G1 X158.626 Y100.418 E54.38003
G1 X159.093 Y100.886 E54.40862
G1 X159.499 Y101.407 E54.43718
G1 X159.84 Y101.973 E54.46575
G1 X160.11 Y102.576 E54.49432
G1 X160.305 Y103.207 E54.52287
G1 X160.422 Y103.857 E54.55143
G1 X160.46 Y104.5 E54.57928
G1 X160.46 Y119.5 E55.22785
G1 X160.42 Y120.159 E55.2564
G1 X160.301 Y120.809 E55.28497
G1 X160.104 Y121.44 E55.31355
G1 X159.832 Y122.042 E55.34212
G1 X159.49 Y122.607 E55.37067
G1 X159.082 Y123.126 E55.39922
G1 X158.614 Y123.593 E55.4278
G1 X158.093 Y123.999 E55.45636
G1 X157.527 Y124.34 E55.48493
G1 X156.924 Y124.61 E55.5135
G1 X156.293 Y124.805 E55.54206
G1 X155.643 Y124.922 E55.57061
G1 X155 Y124.96 E55.59847
G1 X75 Y124.96 E59.05752
G1 X74.341 Y124.92 E59.08607
G1 X73.691 Y124.801 E59.11464
G1 X73.06 Y124.604 E59.14322
G1 X72.458 Y124.332 E59.17178
G1 X71.893 Y123.99 E59.20034
G1 X71.374 Y123.582 E59.22888
G1 X70.907 Y123.114 E59.25747
G1 X70.501 Y122.593 E59.28603
G1 X70.16 Y122.027 E59.3146
G1 X69.89 Y121.424 E59.34317
G1 X69.695 Y120.793 E59.37172
G1 X69.578 Y120.143 E59.40028
G1 X69.54 Y119.5 E59.42813
G1 X69.54 Y104.5 E60.0767
G1 X69.58 Y103.841 E60.10525
G1 X69.699 Y103.191 E60.13382
G1 X69.896 Y102.56 E60.1624
G1 X70.168 Y101.958 E60.19097
G1 X70.51 Y101.393 E60.21952
G1 X70.918 Y100.874 E60.24807
G1 X71.386 Y100.407 E60.27665
G1 X71.907 Y100.001 E60.30521
G0 F6000 X72.407 Y100.295
G1 F1200 X72.962 Y100 E60.33239
G1 X73.55 Y99.778 E60.35957
G1 X74.161 Y99.632 E60.38673
G1 X75 Y99.56 E60.42314
G1 X155 Y99.56 E63.88219
G1 X155.627 Y99.6 E63.90936
G1 X156.244 Y99.719 E63.93653
G1 X156.841 Y99.916 E63.96371
G1 X157.408 Y100.187 E63.99088
G1 X157.936 Y100.527 E64.01804
G1 X158.416 Y100.932 E64.04519
G1 X158.842 Y101.394 E64.07236
G1 X159.205 Y101.907 E64.09954
G1 X159.5 Y102.462 E64.12671
G1 X159.722 Y103.05 E64.15389
G1 X159.868 Y103.661 E64.18105
G1 X159.94 Y104.5 E64.21746
G1 X159.94 Y119.5 E64.86603
G1 X159.9 Y120.127 E64.8932
G1 X159.781 Y120.744 E64.92037
G1 X159.584 Y121.341 E64.94755
G1 X159.313 Y121.908 E64.97472
G1 X158.973 Y122.436 E65.00188
G1 X158.568 Y122.916 E65.02903
G1 X158.106 Y123.342 E65.0562
G1 X157.593 Y123.705 E65.08338
G1 X157.038 Y124 E65.11055
G1 X156.45 Y124.222 E65.13773
G1 X155.839 Y124.368 E65.16489
G1 X155 Y124.44 E65.2013
G1 X75 Y124.44 E68.66035
G1 X74.373 Y124.4 E68.68752
G1 X73.756 Y124.281 E68.71469
G1 X73.159 Y124.084 E68.74187
G1 X72.592 Y123.813 E68.76904
G1 X72.064 Y123.473 E68.7962
G1 X71.584 Y123.068 E68.82335
G1 X71.158 Y122.606 E68.85053
G1 X70.795 Y122.093 E68.8777
G1 X70.5 Y121.538 E68.90487
G1 X70.278 Y120.95 E68.93205
G1 X70.132 Y120.339 E68.95921
G1 X70.06 Y119.5 E68.99562
G1 X70.06 Y104.5 E69.6442
G1 X70.1 Y103.873 E69.67136
G1 X70.219 Y103.256 E69.69853
G1 X70.416 Y102.659 E69.72571
G1 X70.687 Y102.092 E69.75288
G1 X71.027 Y101.564 E69.78004
G1 X71.432 Y101.084 E69.80719
G1 X71.894 Y100.658 E69.83437
G1 X72.407 Y100.295 E69.86154
G0 F6000 X72.4 Y100.926
G1 F1200 X72.903 Y100.609 E69.88725
G1 X73.444 Y100.363 E69.91294
G1 X74.013 Y100.192 E69.93863
G1 X74.6 Y100.098 E69.96434
G1 X75 Y100.08 E69.98165
G1 X155 Y100.08 E73.4407
G1 X155.593 Y100.12 E73.4664
G1 X156.175 Y100.239 E73.49209
G1 X156.736 Y100.435 E73.51778
G1 X157.266 Y100.705 E73.5435
G1 X157.754 Y101.043 E73.56917
G1 X158.193 Y101.444 E73.59488
G1 X158.574 Y101.9 E73.62057
G1 X158.891 Y102.403 E73.64628
G1 X159.137 Y102.944 E73.67197
G1 X159.308 Y103.513 E73.69766
G1 X159.402 Y104.1 E73.72337
G1 X159.42 Y104.5 E73.74068
G1 X159.42 Y119.5 E74.38925
G1 X159.38 Y120.093 E74.41495
G1 X159.261 Y120.675 E74.44064
G1 X159.065 Y121.236 E74.46633
G1 X158.795 Y121.766 E74.49205
G1 X158.457 Y122.254 E74.51772
G1 X158.056 Y122.693 E74.54342
G1 X157.6 Y123.074 E74.56912
G1 X157.097 Y123.391 E74.59482
G1 X156.556 Y123.637 E74.62052
G1 X155.987 Y123.808 E74.64621
G1 X155.4 Y123.902 E74.67191
G1 X155 Y123.92 E74.68923
G1 X75 Y123.92 E78.14828
G1 X74.407 Y123.88 E78.17398
G1 X73.825 Y123.761 E78.19967
G1 X73.264 Y123.565 E78.22536
G1 X72.734 Y123.295 E78.25108
G1 X72.246 Y122.957 E78.27675
G1 X71.807 Y122.556 E78.30245
G1 X71.426 Y122.1 E78.32815
G1 X71.109 Y121.597 E78.35385
G1 X70.863 Y121.056 E78.37955
G1 X70.692 Y120.487 E78.40524
G1 X70.598 Y119.9 E78.43094
G1 X70.58 Y119.5 E78.44826
G1 X70.58 Y104.5 E79.09683
G1 X70.62 Y103.907 E79.12253
G1 X70.739 Y103.325 E79.14821
G1 X70.935 Y102.764 E79.17391
G1 X71.205 Y102.234 E79.19963
G1 X71.543 Y101.746 E79.22529
G1 X71.944 Y101.307 E79.251
G1 X72.4 Y100.926 E79.2767
G0 F6000 X72.902 Y101.212
G1 F1200 X73.393 Y100.947 E79.30082
G1 X73.917 Y100.754 E79.32496
G1 X74.463 Y100.637 E79.34911
G1 X75 Y100.6 E79.37238
G1 X155 Y100.6 E82.83144
G1 X155.557 Y100.64 E82.85558
G1 X156.102 Y100.759 E82.8797
G1 X156.625 Y100.955 E82.90385
G1 X157.114 Y101.223 E82.92796
G1 X157.561 Y101.558 E82.95212
G1 X157.954 Y101.954 E82.97624
G1 X158.288 Y102.402 E83.0004
G1 X158.553 Y102.893 E83.02452
G1 X158.746 Y103.417 E83.04867
G1 X158.863 Y103.963 E83.07281
G1 X158.9 Y104.5 E83.09609
G1 X158.9 Y119.5 E83.74466
G1 X158.86 Y120.057 E83.76881
G1 X158.741 Y120.602 E83.79293
G1 X158.545 Y121.125 E83.81707
G1 X158.277 Y121.614 E83.84119
G1 X157.942 Y122.061 E83.86534
G1 X157.546 Y122.454 E83.88946
G1 X157.098 Y122.788 E83.91362
G1 X156.607 Y123.053 E83.93775
G1 X156.083 Y123.246 E83.96189
G1 X155.537 Y123.363 E83.98604
G1 X155 Y123.4 E84.00931
G1 X75 Y123.4 E87.46836
G1 X74.443 Y123.36 E87.49251
G1 X73.898 Y123.241 E87.51663
G1 X73.375 Y123.045 E87.54078
