;FLAVOR:Marlin
M117 Time Left 4h06m34s
;Filament used: 8.71568m
;Layer height: 0.2
;MINX:92.94
;MINY:91.448
;MINZ:0.2
;MAXX:137.06
;MAXY:137.568
;MAXZ:87
;POSTPROCESSED
;Generated with Cura_SteamEngine 4.5.0
M140 S60
M105
M190 S60
M104 S200
M105
M109 S200
M82 ;absolute extrusion mode
; Ender 3 Custom Start G-code
G92 E0 ; Reset Extruder
G28 ; Home all axes
G29 ; APL
G1 Z2.0 F3000 ; Move Z Axis up little to prevent scratching of Heat Bed
G1 X0.1 Y20 Z0.3 F5000.0 ; Move to start position
G1 X0.1 Y200.0 Z0.3 F1500.0 E15 ; Draw the first line
G1 X0.4 Y200.0 Z0.3 F5000.0 ; Move to side a little
G1 X0.4 Y20 Z0.3 F1500.0 E30 ; Draw the second line
G92 E0 ; Reset Extruder
G1 Z2.0 F3000 ; Move Z Axis up little to prevent scratching of Heat Bed
G1 X5 Y20 Z0.3 F5000.0 ; Move over to prevent blob squish
G92 E0
G92 E0
G1 F2700 E-5
;LAYER_COUNT:435
;LAYER:0
M107
G0 F6000 X95.282 Y97.852 Z0.2
;TYPE:SKIRT
G1 F2700 E0
G1 F1200 X99.275 Y93.833 E0.24496
G1 X99.869 Y93.293 E0.27967
G1 X100.513 Y92.814 E0.31437
G1 X101.202 Y92.401 E0.34911
G1 X101.928 Y92.06 E0.38379
G1 X102.685 Y91.792 E0.41851
G1 X103.464 Y91.6 E0.4532
G1 X104.259 Y91.487 E0.48792
G1 X104.989 Y91.454 E0.51952
G1 X115.996 Y91.448 E0.99544
G1 X116.797 Y91.488 E1.03012
G1 X117.591 Y91.607 E1.06483
G1 X118.369 Y91.804 E1.09953
G1 X119.124 Y92.078 E1.13426
G1 X119.847 Y92.426 E1.16895
G1 X120.533 Y92.843 E1.20367
G1 X121.173 Y93.327 E1.23836
G1 X121.699 Y93.809 E1.26921
G1 X124.338 Y96.448 E1.43058
G1 X129 Y96.448 E1.63215
G1 X129.802 Y96.488 E1.66687
G1 X130.596 Y96.608 E1.70159
G1 X131.374 Y96.805 E1.7363
G1 X132.128 Y97.08 E1.771
G1 X132.851 Y97.428 E1.80569
G1 X133.537 Y97.846 E1.84043
G1 X134.177 Y98.33 E1.87512
G1 X134.766 Y98.876 E1.90985
G1 X135.297 Y99.477 E1.94452
G1 X135.766 Y100.129 E1.97925
G1 X136.168 Y100.823 E2.01393
G1 X136.499 Y101.555 E2.04866
G1 X136.756 Y102.315 E2.08335
G1 X136.936 Y103.098 E2.11809
G1 X137.037 Y103.894 E2.15278
G1 X137.06 Y104.508 E2.17935
G1 X137.06 Y121.504 E2.91423
G1 X137.02 Y122.306 E2.94895
G1 X136.9 Y123.1 E2.98367
G1 X136.703 Y123.878 E3.01837
G1 X136.428 Y124.632 E3.05307
G1 X136.08 Y125.355 E3.08777
G1 X135.662 Y126.041 E3.1225
G1 X135.178 Y126.681 E3.15719
G1 X134.632 Y127.27 E3.19192
G1 X134.031 Y127.801 E3.2266
G1 X133.379 Y128.27 E3.26132
G1 X132.685 Y128.672 E3.296
G1 X131.953 Y129.003 E3.33074
G1 X131.193 Y129.26 E3.36543
G1 X130.41 Y129.44 E3.40017
G1 X129.614 Y129.541 E3.43486
G1 X129 Y129.564 E3.46143
G1 X127.939 Y129.564 E3.5073
G1 X127.662 Y130.019 E3.53033
G1 X127.178 Y130.659 E3.56503
G1 X126.718 Y131.163 E3.59453
G1 X122.724 Y135.183 E3.83955
G1 X122.13 Y135.723 E3.87426
G1 X121.486 Y136.202 E3.90897
G1 X120.797 Y136.615 E3.9437
G1 X120.071 Y136.956 E3.97838
G1 X119.314 Y137.224 E4.0131
G1 X118.535 Y137.416 E4.04779
G1 X117.74 Y137.529 E4.08251
G1 X117.01 Y137.562 E4.11411
G1 X106.019 Y137.568 E4.58934
G1 X105.399 Y137.544 E4.61617
G1 X104.603 Y137.483 E4.65069
G1 X103.807 Y137.382 E4.68538
G1 X103.337 Y137.284 E4.70614
G1 X102.575 Y137.101 E4.74002
G1 X101.805 Y136.875 E4.77472
G1 X101.379 Y136.713 E4.79443
G1 X100.653 Y136.413 E4.82839
G1 X99.927 Y136.07 E4.86311
G1 X99.515 Y135.833 E4.88366
G1 X98.847 Y135.423 E4.91755
G1 X98.184 Y134.97 E4.95227
G1 X97.833 Y134.687 E4.97177
G1 X97.235 Y134.177 E5.00575
G1 X96.651 Y133.626 E5.04047
G1 X96.336 Y133.278 E5.06076
G1 X95.827 Y132.682 E5.09465
G1 X95.337 Y132.047 E5.12933
G1 X95.088 Y131.667 E5.14897
G1 X94.677 Y130.998 E5.18292
G1 X94.292 Y130.294 E5.21762
G1 X94.096 Y129.857 E5.23833
G1 X93.796 Y129.131 E5.27229
G1 X93.527 Y128.375 E5.30699
G1 X93.407 Y127.93 E5.32692
G1 X93.225 Y127.17 E5.36071
G1 X93.077 Y126.381 E5.39542
G1 X93.028 Y125.93 E5.41503
G1 X92.966 Y125.148 E5.44895
G1 X92.941 Y124.511 E5.47651
G1 X92.94 Y103.533 E6.38356
G1 X92.98 Y102.732 E6.41824
G1 X93.099 Y101.938 E6.45295
G1 X93.297 Y101.16 E6.48767
G1 X93.572 Y100.405 E6.52241
G1 X93.92 Y99.682 E6.5571
G1 X94.338 Y98.997 E6.5918
G1 X94.822 Y98.357 E6.6265
G1 X95.282 Y97.852 E6.65603
G0 F6000 X95.651 Y98.219
G1 F1200 X99.644 Y94.2 E6.90099
G1 X100.219 Y93.678 E6.93457
G1 X100.844 Y93.218 E6.96812
G1 X101.514 Y92.825 E7.00171
G1 X102.22 Y92.502 E7.03528
G1 X102.956 Y92.254 E7.06886
G1 X103.713 Y92.083 E7.10242
G1 X104.484 Y91.991 E7.13599
G1 X104.989 Y91.974 E7.15784
G1 X115.996 Y91.968 E7.63376
G1 X116.771 Y92.008 E7.66731
G1 X117.538 Y92.127 E7.70087
G1 X118.289 Y92.324 E7.73444
G1 X119.016 Y92.597 E7.76802
G1 X119.711 Y92.944 E7.80161
G1 X120.366 Y93.361 E7.83518
G1 X120.975 Y93.842 E7.86874
G1 X121.332 Y94.176 E7.88988
G1 X124.124 Y96.968 E8.0606
G1 X129 Y96.968 E8.27143
G1 X129.775 Y97.008 E8.30499
G1 X130.543 Y97.127 E8.33859
G1 X131.293 Y97.325 E8.37213
G1 X132.02 Y97.599 E8.40572
G1 X132.714 Y97.946 E8.43927
G1 X133.369 Y98.363 E8.47284
G1 X133.978 Y98.845 E8.50642
G1 X134.534 Y99.387 E8.54
G1 X135.031 Y99.983 E8.57355
G1 X135.465 Y100.627 E8.60713
G1 X135.829 Y101.313 E8.64071
G1 X136.122 Y102.032 E8.67428
G1 X136.339 Y102.777 E8.70783
G1 X136.478 Y103.541 E8.74141
G1 X136.54 Y104.508 E8.7833
G1 X136.54 Y121.504 E9.51818
G1 X136.5 Y122.279 E9.55173
G1 X136.381 Y123.047 E9.58534
G1 X136.183 Y123.797 E9.61888
G1 X135.909 Y124.524 E9.65247
G1 X135.562 Y125.218 E9.68602
G1 X135.145 Y125.873 E9.71959
G1 X134.663 Y126.482 E9.75317
G1 X134.121 Y127.038 E9.78675
G1 X133.525 Y127.535 E9.8203
G1 X132.881 Y127.969 E9.85388
G1 X132.195 Y128.333 E9.88746
G1 X131.476 Y128.626 E9.92103
G1 X130.731 Y128.843 E9.95458
G1 X129.967 Y128.982 E9.98816
G1 X129 Y129.044 E10.03005
G1 X127.638 Y129.044 E10.08894
G1 X127.562 Y129.196 E10.09629
G1 X127.145 Y129.851 E10.12986
G1 X126.663 Y130.46 E10.16345
G1 X126.349 Y130.796 E10.18333
G1 X122.355 Y134.816 E10.42835
G1 X121.78 Y135.338 E10.46193
G1 X121.155 Y135.798 E10.49548
G1 X120.485 Y136.191 E10.52907
G1 X119.779 Y136.514 E10.56264
G1 X119.043 Y136.762 E10.59622
G1 X118.286 Y136.933 E10.62978
G1 X117.515 Y137.025 E10.66335
G1 X117.01 Y137.042 E10.6852
G1 X106.019 Y137.048 E11.16043
G1 X105.439 Y137.026 E11.18552
G1 X104.643 Y136.965 E11.22004
G1 X103.873 Y136.866 E11.25361
G1 X103.458 Y136.779 E11.27194
G1 X102.696 Y136.596 E11.30583
G1 X101.952 Y136.376 E11.33937
G1 X101.577 Y136.232 E11.35674
G1 X100.851 Y135.932 E11.39071
G1 X100.15 Y135.599 E11.42426
G1 X99.787 Y135.39 E11.44238
G1 X99.119 Y134.98 E11.47627
G1 X98.479 Y134.54 E11.50985
G1 X98.17 Y134.291 E11.52701
G1 X97.572 Y133.781 E11.56099
G1 X97.008 Y133.247 E11.59457
G1 X96.731 Y132.941 E11.61242
G1 X96.222 Y132.345 E11.64631
G1 X95.749 Y131.729 E11.67989
G1 X95.532 Y131.395 E11.69711
G1 X95.121 Y130.726 E11.73106
G1 X94.749 Y130.044 E11.76465
G1 X94.577 Y129.659 E11.78288
G1 X94.277 Y128.933 E11.81685
G1 X94.017 Y128.201 E11.85043
G1 X93.912 Y127.809 E11.86798
G1 X93.73 Y127.049 E11.90177
G1 X93.589 Y126.286 E11.93532
G1 X93.547 Y125.889 E11.95258
G1 X93.485 Y125.107 E11.9865
G1 X93.461 Y124.511 E12.01229
G1 X93.46 Y103.533 E12.91934
G1 X93.5 Y102.758 E12.95289
G1 X93.619 Y101.991 E12.98646
G1 X93.817 Y101.24 E13.02004
G1 X94.091 Y100.514 E13.05359
G1 X94.438 Y99.819 E13.08718
G1 X94.855 Y99.164 E13.12075
G1 X95.337 Y98.555 E13.15433
G1 X95.651 Y98.219 E13.17422
G0 F6000 X96.02 Y98.585
G1 F1200 X100.013 Y94.566 E13.41918
G1 X100.569 Y94.064 E13.45157
G1 X101.175 Y93.623 E13.48397
G1 X101.824 Y93.25 E13.51634
G1 X102.51 Y92.948 E13.54875
G1 X103.223 Y92.721 E13.5811
G1 X103.957 Y92.571 E13.61349
G1 X104.989 Y92.494 E13.65824
G1 X115.996 Y92.488 E14.13416
G1 X116.744 Y92.528 E14.16655
G1 X117.484 Y92.647 E14.19896
G1 X118.207 Y92.844 E14.23136
G1 X118.904 Y93.117 E14.26372
G1 X119.569 Y93.463 E14.29614
G1 X120.193 Y93.877 E14.32852
G1 X120.964 Y94.544 E14.3726
G1 X123.908 Y97.488 E14.55262
G1 X129 Y97.488 E14.77278
G1 X129.748 Y97.528 E14.80517
G1 X130.488 Y97.647 E14.83758
G1 X131.21 Y97.845 E14.86995
G1 X131.908 Y98.118 E14.90236
G1 X132.572 Y98.465 E14.93475
G1 X133.196 Y98.88 E14.96715
G1 X133.771 Y99.359 E14.99951
G1 X134.293 Y99.897 E15.03192
G1 X134.754 Y100.487 E15.0643
G1 X135.15 Y101.123 E15.09669
G1 X135.476 Y101.798 E15.1291
G1 X135.728 Y102.503 E15.16148
G1 X135.903 Y103.232 E15.19389
G1 X136 Y103.974 E15.22625
G1 X136.02 Y104.508 E15.24935
G1 X136.02 Y121.504 E15.98423
G1 X135.98 Y122.252 E16.01662
G1 X135.861 Y122.992 E16.04902
G1 X135.663 Y123.714 E16.0814
G1 X135.39 Y124.412 E16.1138
G1 X135.043 Y125.076 E16.1462
G1 X134.628 Y125.7 E16.1786
G1 X134.149 Y126.275 E16.21096
G1 X133.611 Y126.797 E16.24337
G1 X133.021 Y127.258 E16.27574
G1 X132.385 Y127.654 E16.30814
G1 X131.71 Y127.98 E16.34055
G1 X131.005 Y128.232 E16.37292
G1 X130.276 Y128.407 E16.40534
G1 X129.534 Y128.504 E16.43769
G1 X129 Y128.524 E16.4608
G1 X127.32 Y128.524 E16.53344
G1 X127.043 Y129.054 E16.5593
G1 X126.628 Y129.678 E16.5917
G1 X125.98 Y130.43 E16.63462
G1 X121.986 Y134.45 E16.87964
G1 X121.43 Y134.952 E16.91203
G1 X120.824 Y135.393 E16.94444
G1 X120.175 Y135.766 E16.9768
G1 X119.489 Y136.068 E17.00921
G1 X118.776 Y136.295 E17.04157
G1 X118.042 Y136.445 E17.07396
G1 X117.01 Y136.522 E17.1187
G1 X106.019 Y136.528 E17.59393
G1 X105.479 Y136.507 E17.6173
G1 X104.683 Y136.446 E17.65182
G1 X103.58 Y136.273 E17.70009
G1 X102.818 Y136.09 E17.73398
G1 X101.776 Y135.752 E17.78134
G1 X101.05 Y135.452 E17.81531
G1 X100.059 Y134.947 E17.8634
G1 X99.391 Y134.537 E17.89729
G1 X98.508 Y133.895 E17.94449
G1 X97.91 Y133.385 E17.97848
G1 X97.127 Y132.603 E18.02633
G1 X96.618 Y132.007 E18.06021
G1 X95.975 Y131.123 E18.10748
G1 X95.564 Y130.454 E18.14143
G1 X95.057 Y129.46 E18.18967
G1 X94.757 Y128.734 E18.22364
G1 X94.418 Y127.688 E18.27118
G1 X94.236 Y126.928 E18.30497
G1 X94.065 Y125.848 E18.35225
G1 X94.003 Y125.066 E18.38617
G1 X93.981 Y124.511 E18.41019
G1 X93.98 Y103.533 E19.31724
G1 X94.02 Y102.785 E19.34962
G1 X94.139 Y102.046 E19.38199
G1 X94.337 Y101.323 E19.4144
G1 X94.61 Y100.626 E19.44677
G1 X94.957 Y99.961 E19.4792
G1 X95.372 Y99.338 E19.51157
G1 X96.02 Y98.585 E19.55452
G0 F6000 X96.389 Y98.952
G1 F1200 X100.382 Y94.933 E19.79948
G1 X100.918 Y94.45 E19.83068
G1 X101.503 Y94.03 E19.86182
G1 X102.132 Y93.678 E19.89298
G1 X102.796 Y93.397 E19.92416
G1 X103.487 Y93.191 E19.95534
G1 X104.196 Y93.063 E19.98649
G1 X104.989 Y93.014 E20.02084
G1 X115.996 Y93.008 E20.49676
G1 X116.716 Y93.048 E20.52794
G1 X117.427 Y93.167 E20.55911
G1 X118.121 Y93.364 E20.5903
G1 X118.788 Y93.636 E20.62145
G1 X119.421 Y93.981 E20.65262
G1 X120.012 Y94.394 E20.6838
G1 X120.596 Y94.912 E20.71755
G1 X123.692 Y98.008 E20.90686
G1 X129 Y98.008 E21.13637
G1 X129.72 Y98.048 E21.16755
G1 X130.431 Y98.167 E21.19872
G1 X131.124 Y98.365 E21.22988
G1 X131.791 Y98.638 E21.26105
G1 X132.424 Y98.983 E21.29222
G1 X133.015 Y99.396 E21.32339
G1 X133.556 Y99.872 E21.35455
G1 X134.041 Y100.405 E21.38571
G1 X134.465 Y100.988 E21.41688
G1 X134.821 Y101.615 E21.44805
G1 X135.105 Y102.277 E21.4792
G1 X135.315 Y102.967 E21.51039
G1 X135.446 Y103.676 E21.54156
G1 X135.5 Y104.508 E21.57761
G1 X135.5 Y121.504 E22.31249
G1 X135.46 Y122.224 E22.34367
G1 X135.341 Y122.935 E22.37484
G1 X135.143 Y123.628 E22.406
G1 X134.87 Y124.295 E22.43716
G1 X134.525 Y124.928 E22.46833
G1 X134.112 Y125.519 E22.49951
G1 X133.636 Y126.06 E22.53066
G1 X133.103 Y126.545 E22.56182
G1 X132.52 Y126.969 E22.59299
G1 X131.893 Y127.325 E22.62417
G1 X131.231 Y127.609 E22.65531
G1 X130.541 Y127.819 E22.6865
G1 X129.832 Y127.95 E22.71767
G1 X129 Y128.004 E22.75372
G1 X126.98 Y128.004 E22.84107
G1 X126.87 Y128.273 E22.85363
G1 X126.525 Y128.906 E22.8848
G1 X126.112 Y129.497 E22.91598
G1 X125.611 Y130.063 E22.94866
G1 X121.617 Y134.083 E23.19368
G1 X121.081 Y134.566 E23.22488
G1 X120.496 Y134.986 E23.25602
G1 X119.867 Y135.338 E23.28718
G1 X119.203 Y135.619 E23.31836
G1 X118.512 Y135.825 E23.34953
G1 X117.803 Y135.953 E23.38069
G1 X117.01 Y136.002 E23.41504
G1 X106.019 Y136.008 E23.89027
G1 X105.518 Y135.989 E23.91195
G1 X104.722 Y135.928 E23.94647
G1 X103.701 Y135.767 E23.99116
G1 X102.939 Y135.584 E24.02504
G1 X101.975 Y135.271 E24.06887
G1 X101.249 Y134.971 E24.10283
G1 X100.331 Y134.504 E24.14737
G1 X99.663 Y134.094 E24.18125
G1 X98.845 Y133.5 E24.22497
G1 X98.247 Y132.99 E24.25895
G1 X97.522 Y132.265 E24.30328
G1 X97.013 Y131.669 E24.33717
G1 X96.418 Y130.85 E24.38094
G1 X96.007 Y130.181 E24.41489
G1 X95.538 Y129.261 E24.45954
G1 X95.238 Y128.535 E24.4935
G1 X94.924 Y127.567 E24.53751
G1 X94.742 Y126.807 E24.5713
G1 X94.583 Y125.807 E24.61508
G1 X94.521 Y125.025 E24.649
G1 X94.501 Y124.511 E24.67124
G1 X94.5 Y103.533 E25.57829
G1 X94.54 Y102.814 E25.60942
G1 X94.659 Y102.103 E25.64059
G1 X94.857 Y101.409 E25.6718
G1 X95.13 Y100.742 E25.70296
G1 X95.475 Y100.109 E25.73413
G1 X95.888 Y99.519 E25.76527
G1 X96.389 Y98.952 E25.79799
G0 F6000 X96.758 Y99.318
G1 F1200 X100.751 Y95.299 E26.04295
G1 X101.266 Y94.838 E26.07283
G1 X101.83 Y94.439 E26.1027
G1 X102.437 Y94.108 E26.1326
G1 X103.078 Y93.849 E26.16249
G1 X103.745 Y93.666 E26.1924
G1 X104.428 Y93.561 E26.22227
G1 X104.99 Y93.534 E26.2466
G1 X115.997 Y93.528 E26.72253
G1 X116.687 Y93.568 E26.75241
G1 X117.368 Y93.687 E26.7823
G1 X118.031 Y93.883 E26.81219
G1 X118.666 Y94.155 E26.84206
G1 X119.266 Y94.499 E26.87197
G1 X119.823 Y94.909 E26.90187
G1 X120.228 Y95.28 E26.92562
G1 X123.476 Y98.528 E27.12423
G1 X129 Y98.528 E27.36308
G1 X129.69 Y98.568 E27.39296
G1 X130.371 Y98.687 E27.42285
G1 X131.034 Y98.885 E27.45277
G1 X131.669 Y99.157 E27.48264
G1 X132.269 Y99.501 E27.51254
G1 X132.825 Y99.911 E27.54241
G1 X133.33 Y100.384 E27.57233
G1 X133.777 Y100.911 E27.60221
G1 X134.161 Y101.487 E27.63214
G1 X134.475 Y102.102 E27.662
G1 X134.716 Y102.75 E27.69189
G1 X134.881 Y103.422 E27.72181
G1 X134.967 Y104.108 E27.75171
G1 X134.98 Y104.508 E27.76901
G1 X134.98 Y121.504 E28.50389
G1 X134.94 Y122.194 E28.53377
G1 X134.821 Y122.875 E28.56366
G1 X134.623 Y123.538 E28.59358
G1 X134.351 Y124.173 E28.62345
G1 X134.007 Y124.773 E28.65335
G1 X133.597 Y125.329 E28.68322
G1 X133.124 Y125.834 E28.71314
G1 X132.597 Y126.281 E28.74302
G1 X132.021 Y126.665 E28.77295
G1 X131.406 Y126.979 E28.80281
G1 X130.758 Y127.22 E28.8327
G1 X130.086 Y127.385 E28.86262
G1 X129.4 Y127.471 E28.89252
G1 X129 Y127.484 E28.90982
G1 X126.633 Y127.484 E29.01216
G1 X126.351 Y128.151 E29.04348
G1 X126.007 Y128.751 E29.07338
G1 X125.597 Y129.307 E29.10325
G1 X125.242 Y129.697 E29.12605
G1 X121.248 Y133.717 E29.37107
G1 X120.733 Y134.178 E29.40096
G1 X120.169 Y134.577 E29.43083
G1 X119.562 Y134.908 E29.46073
G1 X118.921 Y135.167 E29.49062
G1 X118.254 Y135.35 E29.52052
G1 X117.571 Y135.455 E29.5504
G1 X117.009 Y135.482 E29.57473
G1 X106.018 Y135.488 E30.04996
G1 X105.558 Y135.471 E30.06987
G1 X104.762 Y135.41 E30.10438
G1 X103.823 Y135.262 E30.14549
G1 X103.061 Y135.079 E30.17937
G1 X102.173 Y134.791 E30.21973
G1 X101.447 Y134.491 E30.2537
G1 X100.603 Y134.061 E30.29466
G1 X99.935 Y133.651 E30.32855
G1 X99.183 Y133.104 E30.36875
G1 X98.585 Y132.594 E30.40274
G1 X97.918 Y131.928 E30.44349
G1 X97.409 Y131.332 E30.47738
G1 X96.861 Y130.578 E30.51768
G1 X96.45 Y129.909 E30.55163
G1 X96.018 Y129.063 E30.5927
G1 X95.718 Y128.337 E30.62667
G1 X95.429 Y127.446 E30.66717
G1 X95.247 Y126.686 E30.70096
G1 X95.102 Y125.766 E30.74123
G1 X95.04 Y124.984 E30.77515
G1 X95.021 Y124.511 E30.79562
G1 X95.02 Y103.533 E31.70267
G1 X95.06 Y102.843 E31.73255
G1 X95.179 Y102.162 E31.76244
G1 X95.376 Y101.499 E31.79235
G1 X95.649 Y100.864 E31.82223
G1 X95.993 Y100.264 E31.85214
G1 X96.403 Y99.708 E31.88201
G1 X96.758 Y99.318 E31.90481
G0 F6000 X97.127 Y99.685
G1 F1200 X101.12 Y95.666 E32.14977
G1 X101.613 Y95.226 E32.17834
G1 X102.155 Y94.849 E32.20689
G1 X102.739 Y94.541 E32.23544
G1 X103.357 Y94.305 E32.26404
G1 X103.998 Y94.145 E32.29261
G1 X104.653 Y94.065 E32.32114
G1 X104.99 Y94.054 E32.33572
G1 X115.997 Y94.048 E32.81164
G1 X116.656 Y94.088 E32.84019
G1 X117.306 Y94.207 E32.86876
G1 X117.937 Y94.403 E32.89733
G1 X118.539 Y94.674 E32.92587
G1 X119.104 Y95.016 E32.95443
G1 X119.861 Y95.647 E32.99704
G1 X123.262 Y99.048 E33.20501
G1 X129 Y99.048 E33.45311
G1 X129.659 Y99.088 E33.48165
G1 X130.309 Y99.207 E33.51022
G1 X130.94 Y99.404 E33.53881
G1 X131.542 Y99.676 E33.56737
