;FLAVOR:Marlin
M117 Time Left 3h49m35s
;Filament used: 17.8121m
;Layer height: 0.3
;MINX:73.759
;MINY:44.174
;MINZ:0.3
;MAXX:155.653
;MAXY:195.707
;MAXZ:15
;POSTPROCESSED
;Generated with Cura_SteamEngine 4.5.0
M140 S60
M105
M190 S60
M104 S210
M105
M109 S210
M82 ;absolute extrusion mode
; Ender 3 Custom Start G-code
G92 E0 ; Reset Extruder
G28 ; Home all axes
G29 ; APL
G1 Z2.0 F3000 ; Move Z Axis up little to prevent scratching of Heat Bed
G1 X0.1 Y20 Z0.3 F5000.0 ; Move to start position
G1 X0.1 Y200.0 Z0.3 F1500.0 E15 ; Draw the first line
G1 X0.4 Y200.0 Z0.3 F5000.0 ; Move to side a little
G1 X0.4 Y20 Z0.3 F1500.0 E30 ; Draw the second line
G92 E0 ; Reset Extruder
G1 Z2.0 F3000 ; Move Z Axis up little to prevent scratching of Heat Bed
G1 X5 Y20 Z0.3 F5000.0 ; Move over to prevent blob squish
G92 E0
G92 E0
G1 F2700 E-5
;LAYER_COUNT:50
;LAYER:0
M107
;MESH:Scheinwerfer_deckel.STL(1)
G0 F6000 X114.919 Y57.256 Z0.3
;TYPE:WALL-INNER
G1 F2700 E0
G1 F1200 X115.642 Y57.194 E0.04706
G1 X116.345 Y57.012 E0.09416
G1 X117.007 Y56.712 E0.1413
G1 X117.609 Y56.305 E0.18843
G1 X118.133 Y55.803 E0.23549
G1 X118.564 Y55.219 E0.28257
G1 X118.892 Y54.57 E0.32973
G1 X119.104 Y53.875 E0.37686
G1 X119.197 Y53.156 E0.42388
G1 X119.167 Y52.432 E0.47088
G1 X119.014 Y51.722 E0.51798
G1 X118.743 Y51.048 E0.5651
G1 X118.362 Y50.429 E0.61224
G1 X117.882 Y49.883 E0.65939
G1 X117.316 Y49.427 E0.70653
G1 X116.682 Y49.073 E0.75363
G1 X115.997 Y48.83 E0.80076
G1 X115.281 Y48.708 E0.84787
G1 X114.558 Y48.708 E0.89476
G1 X113.842 Y48.83 E0.94187
G1 X113.157 Y49.072 E0.98899
G1 X112.522 Y49.427 E1.03617
G1 X111.957 Y49.883 E1.08326
G1 X111.477 Y50.429 E1.13041
G1 X111.096 Y51.047 E1.1775
G1 X110.824 Y51.722 E1.2247
G1 X110.672 Y52.432 E1.27179
G1 X110.642 Y53.155 E1.31872
G1 X110.734 Y53.875 E1.3658
G1 X110.947 Y54.57 E1.41295
G1 X111.273 Y55.218 E1.45999
G1 X111.705 Y55.803 E1.50716
G1 X112.229 Y56.305 E1.55422
G1 X112.831 Y56.712 E1.60135
G1 X113.493 Y57.012 E1.64849
G1 X114.197 Y57.194 E1.69565
G1 X114.919 Y57.256 E1.74265
G0 F6000 X114.919 Y56.734
;TYPE:WALL-OUTER
G1 F1200 X115.554 Y56.68 E1.78398
G1 X116.171 Y56.52 E1.82532
G1 X116.752 Y56.257 E1.86669
G1 X117.281 Y55.899 E1.90811
G1 X117.741 Y55.458 E1.94944
G1 X118.12 Y54.945 E1.99081
G1 X118.408 Y54.375 E2.03223
G1 X118.594 Y53.765 E2.07359
G1 X118.676 Y53.133 E2.11493
G1 X118.649 Y52.498 E2.15615
G1 X118.515 Y51.875 E2.19748
G1 X118.277 Y51.283 E2.23886
G1 X117.942 Y50.739 E2.2803
G1 X117.521 Y50.26 E2.32166
G1 X117.024 Y49.859 E2.36307
G1 X116.467 Y49.548 E2.40445
G1 X115.866 Y49.335 E2.4458
G1 X115.237 Y49.228 E2.48719
G1 X114.602 Y49.228 E2.52837
G1 X113.973 Y49.335 E2.56975
G1 X113.372 Y49.548 E2.61111
G1 X112.814 Y49.859 E2.65254
G1 X112.318 Y50.26 E2.6939
G1 X111.897 Y50.739 E2.73527
G1 X111.562 Y51.282 E2.77665
G1 X111.323 Y51.875 E2.81811
G1 X111.19 Y52.498 E2.85943
G1 X111.163 Y53.133 E2.90065
G1 X111.244 Y53.765 E2.94198
G1 X111.431 Y54.375 E2.98336
G1 X111.718 Y54.945 E3.02475
G1 X112.097 Y55.458 E3.06611
G1 X112.557 Y55.899 E3.10744
G1 X113.086 Y56.257 E3.14887
G1 X113.667 Y56.52 E3.19023
G1 X114.285 Y56.68 E3.23164
G1 X114.919 Y56.734 E3.27291
G0 F6000 X114.919 Y57.306
G0 X112.969 Y56.466
G0 X112.406 Y56.086
G0 X111.916 Y55.617
G0 X111.513 Y55.07
G0 X111.208 Y54.464
G0 X111.009 Y53.815
G0 X110.961 Y53.435
G0 X110.954 Y47.354
;TYPE:WALL-INNER
G1 F1200 X110.38 Y47.815 E3.32065
G1 X110.152 Y47.998 E3.33962
G1 X109.377 Y48.879 E3.41572
G1 X108.766 Y49.872 E3.49133
G1 X108.329 Y50.957 E3.5672
G1 X108.082 Y52.104 E3.64329
G1 X108.037 Y53.268 E3.71885
G1 X108.184 Y54.425 E3.79449
G1 X108.435 Y55.24 E3.8498
G1 X108.527 Y55.54 E3.87015
G1 X108.554 Y55.594 E3.87406
G1 X108.527 Y55.594
G1 X108.213 Y55.594 E3.88711
G1 X78.299 Y55.594 E5.82725
G1 X78.299 Y47.354 E6.36167
G1 X110.217 Y47.354 E8.43179
G1 X110.218 Y47.354 E8.43185
G1 X110.954 Y47.354 E8.45708
G0 F6000 X111.354 Y47.699
G1 F1200 X110.513 Y48.375 E8.52706
G1 X109.797 Y49.189 E8.59737
G1 X109.232 Y50.107 E8.66728
G1 X108.828 Y51.11 E8.73742
G1 X108.6 Y52.169 E8.80767
G1 X108.558 Y53.245 E8.87751
G1 X108.694 Y54.315 E8.94747
G1 X109.011 Y55.346 E9.01743
G1 X109.208 Y55.739 E9.04594
G1 X109.395 Y56.114 E9.07312
G1 X108.976 Y56.114 E9.08875
G1 X77.779 Y56.114 E11.1121
G1 X77.779 Y46.834 E11.71397
G1 X111.945 Y46.834 E13.92989
G1 X112.297 Y46.834 E13.95272
G1 X113.25 Y46.834 E14.01453
G1 X112.297 Y47.168 E14.03743
G1 X111.991 Y47.34 E14.05626
G1 X111.354 Y47.699 E14.10369
G0 F6000 X111.646 Y48.131
G1 F1200 X110.874 Y48.752 E14.16794
G1 X110.217 Y49.499 E14.23247
G1 X109.698 Y50.342 E14.29667
G1 X109.327 Y51.263 E14.36107
G1 X109.118 Y52.234 E14.42549
G1 X109.079 Y53.222 E14.48962
G1 X109.204 Y54.205 E14.55389
G1 X109.495 Y55.152 E14.61814
G1 X109.938 Y56.037 E14.68233
G1 X110.074 Y56.221 E14.69717
G1 X110.378 Y56.634 E14.73043
G1 X109.866 Y56.634 E14.74881
G1 X109.865 Y56.634 E14.74888
G1 X77.259 Y56.634 E16.86362
G1 X77.259 Y46.314 E17.53294
G1 X152.579 Y46.314 E22.41799
G1 X152.579 Y56.634 E23.08732
G1 X119.972 Y56.634 E25.20212
G1 X119.971 Y56.634 E25.20218
G1 X119.459 Y56.634 E25.23539
G1 X119.763 Y56.221 E25.25381
G1 X119.896 Y56.04 E25.26838
G1 X120.344 Y55.155 E25.33271
G1 X120.634 Y54.205 E25.39713
G1 X120.76 Y53.225 E25.46121
G1 X120.721 Y52.234 E25.52554
G1 X120.511 Y51.263 E25.58997
G1 X120.141 Y50.343 E25.65428
G1 X119.622 Y49.499 E25.71854
G1 X118.965 Y48.752 E25.78306
G1 X118.192 Y48.128 E25.8475
G1 X117.327 Y47.648 E25.91166
G1 X116.393 Y47.315 E25.97597
G1 X115.413 Y47.148 E26.04044
G1 X114.426 Y47.148 E26.10446
G1 X113.449 Y47.315 E26.16874
G1 X112.512 Y47.644 E26.23315
G1 X111.646 Y48.131 E26.29759
G0 F6000 X111.938 Y48.563
G1 F1200 X111.235 Y49.129 E26.35613
G1 X110.637 Y49.809 E26.41486
G1 X110.164 Y50.577 E26.47336
G1 X109.826 Y51.416 E26.53202
G1 X109.636 Y52.3 E26.59066
G1 X109.6 Y53.199 E26.64902
G1 X109.714 Y54.095 E26.7076
G1 X109.979 Y54.958 E26.76615
G1 X110.383 Y55.764 E26.82462
G1 X110.921 Y56.493 E26.88339
G1 X111.14 Y56.702 E26.90302
G1 X111.573 Y57.117 E26.94192
G1 X111.628 Y57.154 E26.94622
G1 X111.573 Y57.154
G1 X110.973 Y57.154 E26.96837
G1 X76.739 Y57.154 E29.1887
G1 X76.739 Y45.794 E29.92547
G1 X153.099 Y45.794 E34.87798
G1 X153.099 Y57.154 E35.61475
G1 X118.865 Y57.154 E37.83508
G1 X118.265 Y57.154 E37.87399
G1 X118.21 Y57.154 E37.87756
G1 X118.265 Y57.117 E37.87821
G1 X118.698 Y56.702 E37.90033
G1 X118.917 Y56.493 E37.91997
G1 X119.452 Y55.767 E37.97846
G1 X119.86 Y54.96 E38.03711
G1 X120.124 Y54.095 E38.09576
G1 X120.239 Y53.202 E38.15416
G1 X120.203 Y52.3 E38.21271
G1 X120.012 Y51.416 E38.27136
G1 X119.675 Y50.578 E38.32994
G1 X119.202 Y49.809 E38.3885
G1 X118.604 Y49.129 E38.44723
G1 X117.9 Y48.561 E38.5059
G1 X117.112 Y48.123 E38.56437
G1 X116.261 Y47.82 E38.62296
G1 X115.369 Y47.668 E38.68164
G1 X114.47 Y47.668 E38.73995
G1 X113.58 Y47.82 E38.79851
G1 X112.727 Y48.12 E38.85715
G1 X111.938 Y48.563 E38.91584
G0 F6000 X112.23 Y48.995
G1 F1200 X111.596 Y49.506 E38.96865
G1 X111.057 Y50.119 E39.02159
G1 X110.63 Y50.812 E39.07439
G1 X110.325 Y51.569 E39.12732
G1 X110.154 Y52.366 E39.18019
G1 X110.121 Y53.177 E39.23283
G1 X110.224 Y53.985 E39.28566
G1 X110.463 Y54.764 E39.33851
G1 X110.828 Y55.491 E39.39127
G1 X111.313 Y56.148 E39.44423
G1 X111.901 Y56.711 E39.49703
G1 X112.561 Y57.157 E39.54869
G1 X112.576 Y57.167 E39.54986
G1 X113.319 Y57.504 E39.60277
G1 X113.977 Y57.674 E39.64685
G1 X113.319 Y57.674 E39.65357
G1 X112.576 Y57.674 E39.68458
G1 X112.557 Y57.674 E39.6858
G1 X76.219 Y57.674 E42.04258
G1 X76.219 Y45.274 E42.84681
G1 X153.619 Y45.274 E47.86677
G1 X153.619 Y57.674 E48.671
G1 X117.281 Y57.674 E51.02778
G1 X117.262 Y57.674 E51.02901
G1 X116.519 Y57.674 E51.0772
G1 X115.862 Y57.674 E51.11981
G1 X116.519 Y57.504 E51.12789
G1 X117.262 Y57.167 E51.16361
G1 X117.277 Y57.157 E51.16477
G1 X117.937 Y56.711 E51.21643
G1 X118.525 Y56.148 E51.26923
G1 X119.008 Y55.493 E51.32201
G1 X119.376 Y54.765 E51.37492
G1 X119.614 Y53.985 E51.42781
G1 X119.718 Y53.179 E51.48051
G1 X119.685 Y52.366 E51.53329
G1 X119.513 Y51.569 E51.58617
G1 X119.209 Y50.813 E51.63902
G1 X118.782 Y50.119 E51.69186
G1 X118.243 Y49.506 E51.74481
G1 X117.608 Y48.994 E51.79771
G1 X116.935 Y48.62 E51.84765
G1 X116.897 Y48.598 E51.85049
G1 X116.129 Y48.325 E51.90336
G1 X115.325 Y48.188 E51.95625
G1 X114.514 Y48.188 E52.00885
G1 X113.711 Y48.325 E52.06169
G1 X112.942 Y48.596 E52.11457
G1 X112.23 Y48.995 E52.1675
G0 F6000 X116.592 Y46.834
G1 F1200 X117.542 Y46.834 E52.22912
G1 X117.89 Y46.834 E52.25169
G1 X152.059 Y46.834 E54.4678
G1 X152.059 Y56.114 E55.06967
G1 X120.863 Y56.114 E57.09296
G1 X120.862 Y56.114 E57.09302
G1 X120.441 Y56.114 E57.12033
G1 X120.631 Y55.738 E57.13602
G1 X120.828 Y55.35 E57.16424
G1 X121.144 Y54.315 E57.23443
G1 X121.281 Y53.248 E57.3042
G1 X121.239 Y52.168 E57.3743
G1 X121.01 Y51.11 E57.4445
G1 X120.607 Y50.108 E57.51455
G1 X120.042 Y49.189 E57.58452
G1 X119.326 Y48.375 E57.65483
G1 X118.484 Y47.695 E57.72502
G1 X117.846 Y47.341 E57.77235
G1 X117.542 Y47.173 E57.79108
G1 X116.592 Y46.834 E57.81433
G0 F6000 X118.89 Y47.354
G1 F1200 X119.623 Y47.354 E57.86187
G1 X119.624 Y47.354 E57.86193
G1 X151.539 Y47.354 E59.93185
G1 X151.539 Y55.594 E60.46628
G1 X121.629 Y55.594 E62.40616
G1 X121.312 Y55.594 E62.42672
G1 X121.287 Y55.594 E62.42834
G1 X121.312 Y55.545 E62.42974
G1 X121.404 Y55.242 E62.44279
G1 X121.654 Y54.425 E62.49821
G1 X121.802 Y53.271 E62.57366
G1 X121.757 Y52.102 E62.64954
G1 X121.509 Y50.957 E62.72552
G1 X121.073 Y49.873 E62.8013
G1 X120.462 Y48.879 E62.87697
G1 X119.687 Y47.998 E62.95308
G1 X119.461 Y47.815 E62.97194
G1 X118.89 Y47.354 E62.99708
G1 F2700 E57.99708
G0 F6000 X75.699 Y44.754
G1 F2700 E62.99708
G1 F1200 X154.139 Y44.754 E68.08449
G1 X154.139 Y58.194 E68.95617
G1 X75.699 Y58.194 E74.04357
G1 X75.699 Y44.754 E74.91525
G1 F2700 E69.91525
G0 F6000 X110.394 Y47.551
G0 X115.927 Y49.103
G0 X116.566 Y49.329
G0 X117.158 Y49.66
G0 X121.974 Y53.279
G0 X121.548 Y55.407
G0 X154.389 Y58.444
G0 X154.659 Y58.714
;TYPE:WALL-OUTER
G1 F2700 E74.91525
G1 F1200 X75.179 Y58.714 E80.07011
G1 X75.179 Y44.234 E81.00924
G1 X154.659 Y44.234 E86.1641
G1 X154.659 Y58.714 E87.10323
G0 F6000 X154.389 Y58.444
G0 X151.429 Y55.084
G0 X151.029 Y55.084
;TYPE:SKIN
G1 F1200 X121.986 Y55.084 E88.98688
G1 X122.154 Y54.533 E89.02424
G1 X122.314 Y53.294 E89.10527
G1 X122.265 Y52.037 E89.18685
G1 X121.998 Y50.806 E89.26855
G1 X121.53 Y49.643 E89.34986
G1 X120.874 Y48.575 E89.43115
G1 X120.249 Y47.864 E89.49254
G1 X151.029 Y47.864 E91.48885
G1 X151.029 Y55.084 E91.95712
G0 F6000 X151.429 Y55.084
G0 X151.429 Y48.588
G0 X150.808 Y48.588
G1 F1200 X150.303 Y48.083 E92.00344
G0 F6000 X149.567 Y48.083
G1 F1200 X150.808 Y49.324 E92.11727
G0 F6000 X150.808 Y50.059
G1 F1200 X148.832 Y48.083 E92.29851
G0 F6000 X148.097 Y48.083
G1 F1200 X150.808 Y50.795 E92.54721
G0 F6000 X150.808 Y51.53
G1 F1200 X147.361 Y48.083 E92.86338
G0 F6000 X146.626 Y48.083
G1 F1200 X150.808 Y52.265 E93.24696
G0 F6000 X150.808 Y53.001
G1 F1200 X145.89 Y48.083 E93.69805
G0 F6000 X145.155 Y48.083
G1 F1200 X150.808 Y53.736 E94.21655
G0 F6000 X150.808 Y54.471
G1 F1200 X144.42 Y48.083 E94.80247
G0 F6000 X143.684 Y48.083
G1 F1200 X150.464 Y54.863 E95.42435
G0 F6000 X149.729 Y54.863
G1 F1200 X142.949 Y48.083 E96.04622
G0 F6000 X142.214 Y48.083
G1 F1200 X148.993 Y54.863 E96.66805
G0 F6000 X148.258 Y54.863
G1 F1200 X141.478 Y48.083 E97.28993
G0 F6000 X140.743 Y48.083
G1 F1200 X147.522 Y54.863 E97.91176
G0 F6000 X146.787 Y54.863
G1 F1200 X140.007 Y48.083 E98.53363
G0 F6000 X139.272 Y48.083
G1 F1200 X146.052 Y54.863 E99.15551
G0 F6000 X145.316 Y54.863
G1 F1200 X138.537 Y48.083 E99.77734
G0 F6000 X137.801 Y48.083
G1 F1200 X144.581 Y54.863 E100.39921
G0 F6000 X143.846 Y54.863
G1 F1200 X137.066 Y48.083 E101.02109
G0 F6000 X136.33 Y48.083
G1 F1200 X143.11 Y54.863 E101.64296
G0 F6000 X142.375 Y54.863
G1 F1200 X135.595 Y48.083 E102.26484
G0 F6000 X134.86 Y48.083
G1 F1200 X141.639 Y54.863 E102.88667
G0 F6000 X140.904 Y54.863
G1 F1200 X134.124 Y48.083 E103.50854
G0 F6000 X133.389 Y48.083
G1 F1200 X140.169 Y54.863 E104.13042
G0 F6000 X139.433 Y54.863
G1 F1200 X132.653 Y48.083 E104.7523
G0 F6000 X131.918 Y48.083
G1 F1200 X138.698 Y54.863 E105.37417
G0 F6000 X137.962 Y54.863
G1 F1200 X131.183 Y48.083 E105.996
G0 F6000 X130.447 Y48.083
G1 F1200 X137.227 Y54.863 E106.61788
G0 F6000 X136.492 Y54.863
G1 F1200 X129.712 Y48.083 E107.23975
G0 F6000 X128.976 Y48.083
G1 F1200 X135.756 Y54.863 E107.86163
G0 F6000 X135.021 Y54.863
G1 F1200 X128.241 Y48.083 E108.4835
G0 F6000 X127.506 Y48.083
G1 F1200 X134.285 Y54.863 E109.10533
G0 F6000 X133.55 Y54.863
G1 F1200 X126.77 Y48.083 E109.72721
G0 F6000 X126.035 Y48.083
G1 F1200 X132.815 Y54.863 E110.34908
G0 F6000 X132.079 Y54.863
G1 F1200 X125.3 Y48.083 E110.97091
G0 F6000 X124.564 Y48.083
G1 F1200 X131.344 Y54.863 E111.59279
G0 F6000 X130.608 Y54.863
G1 F1200 X123.829 Y48.083 E112.21462
G0 F6000 X123.093 Y48.083
G1 F1200 X129.873 Y54.863 E112.83649
G0 F6000 X129.138 Y54.863
G1 F1200 X122.358 Y48.083 E113.45837
G0 F6000 X121.623 Y48.083
G1 F1200 X128.402 Y54.863 E114.0802
G0 F6000 X127.667 Y54.863
G1 F1200 X120.887 Y48.083 E114.70207
G0 F6000 X120.887 Y47.464
G0 X119.447 Y47.551
G0 X121.229 Y49.965
G0 X121.803 Y49.735
G1 F1200 X126.932 Y54.863 E115.17247
G0 F6000 X126.196 Y54.863
G1 F1200 X122.246 Y50.913 E115.53477
G0 F6000 X122.449 Y51.852
G1 F1200 X125.461 Y54.863 E115.81099
G0 F6000 X124.725 Y54.863
G1 F1200 X122.508 Y52.646 E116.01434
G0 F6000 X122.521 Y53.394
G1 F1200 X123.99 Y54.863 E116.14908
G0 F6000 X123.255 Y54.863
G1 F1200 X122.436 Y54.045 E116.22415
G0 F6000 X122.337 Y54.681
G1 F1200 X122.519 Y54.863 E116.24085
G0 F6000 X122.519 Y55.484
G0 X121.548 Y55.407
G0 X119.835 Y48
G0 X119.99 Y47.865
;TYPE:SKIN
G1 F1200 X119.699 Y47.574 E116.25111
G0 F6000 X119.981 Y47.574
G1 F1200 X120.078 Y47.671 E116.25453
G0 F6000 X120.078 Y47.464
G0 X109.891 Y48.128
G0 X109.591 Y47.864
;TYPE:SKIN
G1 F1200 X108.965 Y48.575 E116.31597
G1 X108.309 Y49.641 E116.39715
G1 X107.84 Y50.807 E116.47867
G1 X107.574 Y52.04 E116.56047
G1 X107.525 Y53.29 E116.64161
G1 X107.684 Y54.533 E116.72288
G1 X107.853 Y55.084 E116.76026
G1 X78.809 Y55.084 E118.64398
G1 X78.809 Y47.864 E119.11225
G1 X109.591 Y47.864 E121.10868
G0 F6000 X109.891 Y48.128
G0 X109.288 Y48.813
G0 X108.771 Y48.469
G1 F1200 X108.386 Y48.083 E121.14404
G0 F6000 X107.65 Y48.083
G1 F1200 X108.491 Y48.924 E121.22118
G0 F6000 X108.211 Y49.38
G1 F1200 X106.915 Y48.083 E121.3401
G0 F6000 X106.179 Y48.083
G1 F1200 X107.975 Y49.88 E121.50488
G0 F6000 X107.765 Y50.404
G1 F1200 X105.444 Y48.083 E121.71776
G0 F6000 X104.709 Y48.083
G1 F1200 X107.582 Y50.956 E121.98128
G0 F6000 X107.451 Y51.561
G1 F1200 X103.973 Y48.083 E122.30029
G0 F6000 X103.238 Y48.083
G1 F1200 X107.347 Y52.192 E122.67717
G0 F6000 X107.319 Y52.9
G1 F1200 X102.502 Y48.083 E123.119
G0 F6000 X101.767 Y48.083
G1 F1200 X107.351 Y53.667 E123.63118
G0 F6000 X107.459 Y54.511
G1 F1200 X101.032 Y48.083 E124.22072
G0 F6000 X100.296 Y48.083
G1 F1200 X107.076 Y54.863 E124.84259
G0 F6000 X106.341 Y54.863
G1 F1200 X99.561 Y48.083 E125.46447
G0 F6000 X98.825 Y48.083
G1 F1200 X105.605 Y54.863 E126.08634
G0 F6000 X104.87 Y54.863
G1 F1200 X98.09 Y48.083 E126.70822
G0 F6000 X97.355 Y48.083
G1 F1200 X104.134 Y54.863 E127.33005
G0 F6000 X103.399 Y54.863
G1 F1200 X96.619 Y48.083 E127.95192
G0 F6000 X95.884 Y48.083
G1 F1200 X102.664 Y54.863 E128.5738
G0 F6000 X101.928 Y54.863
G1 F1200 X95.148 Y48.083 E129.19568
G0 F6000 X94.413 Y48.083
G1 F1200 X101.193 Y54.863 E129.81755
G0 F6000 X100.457 Y54.863
G1 F1200 X93.678 Y48.083 E130.43938
G0 F6000 X92.942 Y48.083
G1 F1200 X99.722 Y54.863 E131.06126
G0 F6000 X98.987 Y54.863
G1 F1200 X92.207 Y48.083 E131.68313
G0 F6000 X91.472 Y48.083
G1 F1200 X98.251 Y54.863 E132.30496
G0 F6000 X97.516 Y54.863
G1 F1200 X90.736 Y48.083 E132.92684
G0 F6000 X90.001 Y48.083
G1 F1200 X96.78 Y54.863 E133.54866
G0 F6000 X96.045 Y54.863
G1 F1200 X89.265 Y48.083 E134.17054
G0 F6000 X88.53 Y48.083
G1 F1200 X95.31 Y54.863 E134.79242
G0 F6000 X94.574 Y54.863
G1 F1200 X87.795 Y48.083 E135.41424
G0 F6000 X87.059 Y48.083
